svg/furkot/public-domain/stadium.svg

<svg viewBox="0 0 512 512" xmlns="http://www.w3.org/2000/svg"><path d="m263.112 146.355v-5.709l57.477-17.515-57.477-12.042v-.994c0-2.621-2.12-4.741-4.741-4.741s-4.742 2.12-4.742 4.741v36.24c.794 0 1.577-.016 2.371-.016 2.386-.01 4.741.016 7.112.036zm-180.409 10.368 56.264-21.089-58.122-8.412-.062-.994c-.163-2.616-2.411-4.597-5.027-4.433s-4.598 2.411-4.434 5.027l2.77 44.099c2.995-.901 6.103-1.777 9.333-2.632zm94.582-39.398 56.433-20.639-58.051-8.878-.056-.993c-.143-2.617-2.376-4.619-4.992-4.475-2.616.143-4.618 2.376-4.475 4.992l3.656 66.683c3.118-.297 6.267-.574 9.451-.84zm-1.567 152.975c-21.463-7.286-34.554-16.788-34.554-27.218 0-22.907 62.735-41.477 140.119-41.477 77.383 0 140.119 18.57 140.119 41.477 0 6.062-4.496 11.802-12.391 16.994 47.457-9.846 77.389-24.192 77.389-40.157 0-29.219-99.359-52.946-223.288-53.826-2.366-.016-4.726-.041-7.112-.041-.794 0-1.577.01-2.371.015-26.06.062-51.072 1.132-74.378 3.057-3.184.261-6.328.543-9.451.84-33.388 3.148-62.884 8.074-86.37 14.274-3.23.855-6.338 1.731-9.333 2.632-30.362 9.118-48.497 20.582-48.497 33.049 0 23.076 62.469 42.773 150.118 50.381z"/><path d="m28.549 261.612 32.65 149.319c7.348 1.603 14.951 3.118 22.805 4.542 1.085-36.26 2.964-74.307 5.304-74.553 0-4.347 3.523-7.869 7.87-7.869 4.321-.461 8.576 6.175 9.497 14.817 1.562 0 6.385 31.964 11.914 73.068 19.165 2.58 39.419 4.628 60.498 6.098 1.306-37.55 3.308-72.725 5.735-72.986 0-5.074 4.111-9.185 9.185-9.185 5.043-.538 10.005 7.204 11.085 17.29 1.582 0 6.026 28.068 11.387 66.811 12.958.45 26.132.712 39.526.712s26.568-.262 39.527-.712c5.36-38.743 9.804-66.811 11.386-66.811 1.076-10.086 6.037-17.828 11.085-17.29 5.074 0 9.185 4.111 9.185 9.185 2.427.261 4.429 35.436 5.735 72.986 21.079-1.47 41.334-3.518 60.498-6.098 5.529-41.104 10.347-73.068 11.914-73.068.922-8.648 5.176-15.278 9.498-14.817 4.347 0 7.869 3.522 7.869 7.869 2.34.251 4.214 38.293 5.304 74.553 7.849-1.424 15.453-2.939 22.805-4.542l32.65-149.319c-28.452 18.595-119.48 39.521-227.461 39.541-107.981-.02-199.009-20.946-227.451-39.541z"/></svg>

<svg xmlns="http://www.w3.org/2000/svg" viewBox="0 0 512 512"><path d="M263.112 146.355V140.646L320.589 123.131 263.112 111.089V110.095C263.112 107.474 260.992 105.354 258.371 105.354S253.629 107.474 253.629 110.095V146.335C254.423 146.335 255.206 146.319 256 146.319 258.386 146.309 260.741 146.335 263.112 146.355ZM82.703 156.723L138.967 135.634 80.845 127.222 80.783 126.228C80.62 123.612 78.372 121.631 75.756 121.795S71.158 124.206 71.322 126.822L74.092 170.921C77.087 170.02 80.195 169.144 83.425 168.289L82.703 156.723ZM177.285 117.325L233.718 96.686 175.667 87.808 175.611 86.815C175.468 84.198 173.235 82.196 170.619 82.34 168.003 82.483 166.001 84.716 166.144 87.332L169.8 154.015C172.918 153.718 176.067 153.441 179.251 153.175L177.285 117.325ZM175.718 270.3C154.255 263.014 141.164 253.512 141.164 243.082 141.164 220.175 203.899 201.605 281.283 201.605 358.666 201.605 421.402 220.175 421.402 243.082 421.402 249.144 416.906 254.884 409.011 260.076 456.468 250.23 486.4 235.884 486.4 219.919 486.4 190.7 387.041 166.973 263.112 166.093 260.746 166.077 258.386 166.052 256 166.052 255.206 166.052 254.423 166.062 253.629 166.067 227.569 166.129 202.557 167.199 179.251 169.124 176.067 169.385 172.923 169.667 169.8 169.964 136.412 173.112 106.916 178.038 83.43 184.238 80.2 185.093 77.092 185.969 74.097 186.87 43.735 195.988 25.6 207.452 25.6 219.919 25.6 242.995 88.069 262.692 175.718 270.3Z"/><path d="M28.549 261.612L61.199 410.931C68.547 412.534 76.15 414.049 84.004 415.473 85.089 379.213 86.968 341.166 89.308 340.92 89.308 336.573 92.831 333.051 97.178 333.051 101.499 332.59 105.754 339.226 106.675 347.868 108.237 347.868 113.06 379.832 118.589 420.936 137.754 423.516 158.008 425.564 179.087 427.034 180.393 389.484 182.395 354.309 184.822 354.048 184.822 348.974 188.933 344.863 194.007 344.863 199.05 344.325 204.012 352.067 205.092 362.153 206.674 362.153 211.118 390.221 216.479 428.964 229.437 429.414 242.611 429.676 256.005 429.676S282.573 429.414 295.532 428.964C300.892 390.221 305.336 362.153 306.918 362.153 307.994 352.067 312.955 344.325 318.003 344.863 323.077 344.863 327.188 348.974 327.188 354.048 329.615 354.309 331.617 389.484 332.923 427.034 354.002 425.564 374.257 423.516 393.421 420.936 398.95 379.832 403.768 347.868 405.335 347.868 406.257 339.22 410.511 332.59 414.833 333.051 419.18 333.051 422.702 336.573 422.702 340.92 425.042 341.171 426.916 379.213 428.006 415.473 435.855 414.049 443.459 412.534 450.811 410.931L483.461 261.612C455.009 280.207 363.981 301.133 256 301.153 148.019 301.133 56.991 280.207 28.549 261.612Z"/></svg>
